; A different tree taken from
; http://utdallas.edu/~veerasam/logo/

to tree :level :size
   if :level > 0 [
      fd :size
      lt 10
      tree :level-1 :size*0.8
      rt 10
      rt 30
      tree :level-1 :size*0.8
      lt 30
      ; pu
      back :size
      ; pd
   ]
end
tree 13 40
