; A different tree taken from
; http://utdallas.edu/~veerasam/logo/

to tree :level :size
   if :level > 0 [
      setpensize :level/2
      if :level < 3 [
        setpencolor 10
      ]
      if :level >= 3 [
        setpencolor 0
      ]
      fd :size
      lt 10
      tree :level-1 :size*0.8
      rt 10
      rt 30
      tree :level-1 :size*0.8
      lt 30
      pu
      back :size
      pd
   ]
end

; this code just to put turtle at bottom
pu
back 200
pd


tree 13 60
